icon-svg/downstairs.svg

<svg xmlns="http://www.w3.org/2000/svg" fill="#44739e" viewBox="0 0 24 24"><path d="m4.729 14.379 5.385-3.643-3.167-3.811-1.023.583 2.272 2.923-4.289 2.887-.008-.009-.026.032-.021.014-.737-.86-.727 3.14 3.037-.442ZM14.22 4.014 12.2 3 7.384 5.992l2.048 1.235Zm-3.69 4.393 4.883-3.278-1.012-.507-4.81 3.245Zm6.119 4.189L21.872 9l.124.064-6.284-3.283-4.985 3.314Zm-.008.172-6.139-3.64.001-.018-.032-.014.375-.243 4.703-3.157-.034-.018.021-.487-5.014 3.383-1.116-.65V7.91l-.056-.034.114-.083 4.856-3.259.021-.46-4.916 3.317-2.168-1.345.104.644-.003-.001.003.004.002.013.024.014 1.05 1.142.003.014.023.014 1.062 1.154.004.015.023.014 1.455 1.582-.394.22 4.925 2.998.923-.587-.024-.014-4.922-2.873.092-.061.01-.007 4.96 2.848.132.071-.14.093-.006.004-1.01.689-5.058-3.096.036.396 4.993 3.108.135.079-.149.107-.006-.003-.995.64-5.159-3.158.041.453 5.051 3.144.135.079-.025.018.001.004-.052.033-.073.053-.005-.003-.977.628-5.303-3.246.044.491 5.063 3.151.135.079h-.001l.106.065.002.028-1.177.757-4.907-3.003-.52-.319.046.516 5.331 3.3.001.001.093.057v.003l.008.005-.145.083h-.002l-3.429 1.946-5.213-3.702v.541L8.791 21l3.787-2.232.616-.363.57-.334 1.935-2.366.009-.006v-.005l1-1.223.001-.001v-.001l2.252-2.753 3.012-2.134.024-.518zm-8.498.504.468.287m6.761.983-4.864-3.079-1.037.579 5.023 3.058zm-1.085 1.26-5.003-3.167-1.017.568 5.164 3.144zm-1.074 1.284-.106-.068-5.011-3.172-1.081.605 5.284 3.216zm-4.422 3.167 3.302-1.82-5.257-3.311-3.125 1.543z"/></svg>

<?xml version="1.0" encoding="UTF-8"?>
<svg width="24px" fill="#44739e" height="24px" viewBox="0 0 24 24" version="1.1" xmlns="http://www.w3.org/2000/svg" xmlns:xlink="http://www.w3.org/1999/xlink">
            <path d="M 4.729,14.379 10.114,10.736 6.947,6.925 5.924,7.508 8.196,10.431 3.907,13.318 3.899,13.309 3.873,13.341 3.852,13.355 3.115,12.495 2.388,15.635 5.425,15.193 Z M 14.22,4.014 12.2,3 7.384,5.992 9.432,7.227 Z M 10.53,8.407 15.413,5.129 14.401,4.622 9.591,7.867 Z M 16.649,12.596 21.872,9 21.996,9.064 15.712,5.781 10.727,9.095 Z M 16.641,12.768 10.502,9.128 10.503,9.11 10.471,9.096 10.846,8.853 15.549,5.696 15.515,5.678 15.536,5.191 10.522,8.574 9.406,7.924 V 7.91 L 9.35,7.876 9.464,7.793 14.32,4.534 14.341,4.074 9.425,7.391 7.257,6.046 7.361,6.69 7.358,6.689 7.361,6.693 7.363,6.706 7.387,6.72 8.437,7.862 8.44,7.876 8.463,7.89 l 1.062,1.154 0.004,0.015 0.023,0.014 1.455,1.582 -0.394,0.22 4.925,2.998 0.923,-0.587 -0.024,-0.014 -4.922,-2.873 0.092,-0.061 0.01,-0.007 4.96,2.848 0.132,0.071 -0.14,0.093 -0.006,0.004 -1.01,0.689 -5.058,-3.096 0.036,0.396 4.993,3.108 0.135,0.079 -0.149,0.107 -0.006,-0.003 -0.995,0.64 -5.159,-3.158 0.041,0.453 5.051,3.144 0.135,0.079 -0.025,0.018 0.001,0.004 -0.052,0.033 -0.073,0.053 -0.005,-0.003 -0.977,0.628 -5.303,-3.246 0.044,0.491 5.063,3.151 0.135,0.079 h -10e-4 l 0.106,0.065 0.002,0.028 -1.177,0.757 -4.907,-3.003 -0.52,-0.319 0.046,0.516 5.331,3.3 10e-4,0.001 0.093,0.057 v 0.003 l 0.008,0.005 -0.145,0.083 H 12.22 L 8.791,20.432 3.578,16.73 v 0.541 L 8.791,21 l 3.787,-2.232 0.616,-0.363 0.57,-0.334 1.935,-2.366 0.009,-0.006 v -0.005 l 1,-1.223 0.001,-10e-4 v -0.001 l 2.252,-2.753 3.012,-2.134 0.024,-0.518 z m -8.4980004,0.504 0.4680005,0.287 M 10.495,10.94 v 0 m 4.877,3.602 -4.864,-3.079 -1.037,0.579 5.023,3.058 z M 9.3500004,12.109 v 0 M 14.287,15.802 9.284,12.635 l -1.017,0.568 5.164,3.144 z m -1.074,1.284 -0.106,-0.068 -5.011,-3.172 -1.081,0.605 5.284,3.216 z m -4.422,3.167 3.302,-1.82 -5.257,-3.311 -3.125,1.543 z"/>

</svg>
